X:59
T:Scent of the Bog, The
T:Smell of the Bog, The
R:hornpipe
D:Brendan Begley
Z:id:hn-hornpipe-59
M:C|
K:G
ge|dGBd ecge|dBGB dGBd|~c3A ~B3G|AGFE D2ge|
dGBd ecge|dBGB dgfg|(3efg cg fdfa|(3gag fa g2:|
|:ga|(3bag (3agf gBfB|gBfB ed^cd|efga (3bag (3agf|(3gfe (3fed efga|
bg (3agf gBfB|gBfB ed^cd|egcg (3fga df|gagf g2:|
P:variations
|:(3gfe|dGBd edge|dBGB dBed|(3cdc Ac (3BcB GB|(3ABA (3GFE D2 (3gfe|
dGBd edge|dBGB dgfg|(3efe cg fada|g2gf g2:|
|:ga|(3bag af gBfB|gBfB edBd|efga (3bag (3agf|(3gfe (3fed efga|
(3bag af gBfB|gBfB edBd|egcg fada|g2gf g2:|
<end>
<start>
